assets/images/js.svg

<svg width="30" height="30" viewBox="0 0 30 30" fill="none" xmlns="http://www.w3.org/2000/svg">
<path d="M0 0H30V30H0V0Z" fill="#F7DF1E"/>
<path d="M7.8883 25.0702L10.184 23.6808C10.627 24.4661 11.0299 25.1305 11.9963 25.1305C12.9227 25.1305 13.5069 24.7682 13.5069 23.3586V13.7729H16.326V23.3985C16.326 26.3185 14.6144 27.6476 12.1171 27.6476C9.86186 27.6476 8.55275 26.4796 7.88818 25.0699M17.8573 24.7681L20.1528 23.439C20.7571 24.4259 21.5425 25.1508 22.9319 25.1508C24.1001 25.1508 24.845 24.5667 24.845 23.7612C24.845 22.7946 24.0797 22.4522 22.7909 21.8885L22.0863 21.5862C20.0522 20.7205 18.7031 19.633 18.7031 17.3373C18.7031 15.2228 20.314 13.6117 22.8313 13.6117C24.6236 13.6117 25.9124 14.2361 26.8387 15.8672L24.6435 17.277C24.1601 16.4111 23.6368 16.0688 22.8312 16.0688C22.0055 16.0688 21.4819 16.5924 21.4819 17.277C21.4819 18.1227 22.0055 18.4652 23.2137 18.9888L23.9185 19.2908C26.315 20.318 27.6642 21.3651 27.6642 23.721C27.6642 26.2586 25.6706 27.6479 22.9922 27.6479C20.3744 27.6479 18.6828 26.3994 17.8572 24.7682" fill="black"/>
</svg>

<svg width="30" height="30" fill="none" xmlns="http://www.w3.org/2000/svg"><path d="M0 0h30v30H0V0Z" fill="#F7DF1E"/><path d="m7.888 25.07 2.296-1.39c.443.786.846 1.45 1.812 1.45.927 0 1.51-.362 1.51-1.771v-9.586h2.82v9.625c0 2.92-1.712 4.25-4.209 4.25-2.255 0-3.564-1.168-4.229-2.578m9.97-.302 2.295-1.329c.604.987 1.39 1.712 2.779 1.712 1.168 0 1.913-.584 1.913-1.39 0-.966-.765-1.309-2.054-1.872l-.705-.303c-2.034-.865-3.383-1.953-3.383-4.249 0-2.114 1.611-3.725 4.128-3.725 1.793 0 3.081.624 4.008 2.255l-2.195 1.41c-.484-.866-1.007-1.208-1.813-1.208-.825 0-1.35.523-1.35 1.208 0 .846.524 1.188 1.733 1.712l.705.302c2.396 1.027 3.745 2.074 3.745 4.43 0 2.538-1.993 3.927-4.672 3.927-2.618 0-4.31-1.249-5.135-2.88" fill="#000"/></svg>
